src/assets/bold/lm-checkbox-square-bold.svg

<svg width="24" height="24" viewBox="0 0 24 24" fill="none" xmlns="http://www.w3.org/2000/svg" fill="currentColor">
<path d="M5.23415 5.23412C5.46455 5.00372 5.77704 4.87428 6.10288 4.87428H14.9486C15.3557 4.87428 15.6857 4.54425 15.6857 4.13714C15.6857 3.73002 15.3557 3.39999 14.9486 3.39999H6.10288C5.38604 3.39999 4.69856 3.68476 4.19167 4.19164C3.68479 4.69853 3.40002 5.38601 3.40002 6.10285V17.8971C3.40002 18.614 3.68479 19.3015 4.19167 19.8083C4.69856 20.3152 5.38604 20.6 6.10288 20.6H17.8972C18.614 20.6 19.3015 20.3152 19.8084 19.8083C20.3153 19.3015 20.6 18.614 20.6 17.8971V12C20.6 11.5929 20.27 11.2629 19.8629 11.2629C19.4558 11.2629 19.1257 11.5929 19.1257 12V17.8971C19.1257 18.223 18.9963 18.5355 18.7659 18.7659C18.5355 18.9963 18.223 19.1257 17.8972 19.1257H6.10288C5.77704 19.1257 5.46455 18.9963 5.23415 18.7659C5.00375 18.5355 4.87431 18.223 4.87431 17.8971V6.10285C4.87431 5.77701 5.00375 5.46452 5.23415 5.23412ZM12.5213 14.4869L20.3841 6.62409C20.672 6.33622 20.672 5.86949 20.3841 5.58161C20.0963 5.29374 19.6295 5.29374 19.3416 5.58161L12 12.9232L9.57269 10.4959C9.28482 10.208 8.81809 10.208 8.53021 10.4959C8.24234 10.7838 8.24234 11.2505 8.53021 11.5384L11.4788 14.4869C11.7667 14.7748 12.2334 14.7748 12.5213 14.4869Z" fill="black"/>
</svg>

<svg xmlns="http://www.w3.org/2000/svg" width="24" height="24" fill="currentColor" viewBox="0 0 24 24">
  <path d="M5.234 5.234c.23-.23.543-.36.869-.36h8.846a.737.737 0 0 0 0-1.474H6.103A2.703 2.703 0 0 0 3.4 6.103v11.794A2.703 2.703 0 0 0 6.103 20.6h11.794a2.703 2.703 0 0 0 2.703-2.703V12a.737.737 0 1 0-1.474 0v5.897a1.229 1.229 0 0 1-1.229 1.229H6.103a1.229 1.229 0 0 1-1.229-1.229V6.103c0-.326.13-.638.36-.869Zm7.287 9.253 7.863-7.863a.737.737 0 1 0-1.042-1.042L12 12.923l-2.427-2.427a.737.737 0 1 0-1.043 1.042l2.949 2.949a.737.737 0 0 0 1.042 0Z"/>
</svg>
